flaticon/dialogue/envelope-7.svg

<svg xmlns="http://www.w3.org/2000/svg" width="32" height="32" viewBox="0 0 24 24">
    <path d="M 23.191406 23.648438 C 23.195312 23.632812 23.203125 23.617188 23.203125 23.601562 L 23.203125 9.820312 C 23.203125 9.710938 23.160156 9.609375 23.082031 9.535156 L 14.265625 0.917969 C 13.015625 -0.304688 10.984375 -0.304688 9.734375 0.917969 L 0.917969 9.535156 C 0.839844 9.609375 0.796875 9.710938 0.796875 9.820312 L 0.796875 23.601562 C 0.796875 23.617188 0.804688 23.636719 0.808594 23.652344 C 0.8125 23.679688 0.816406 23.707031 0.824219 23.734375 C 0.835938 23.761719 0.851562 23.785156 0.867188 23.808594 C 0.875 23.824219 0.878906 23.84375 0.890625 23.859375 C 0.894531 23.863281 0.902344 23.863281 0.90625 23.867188 C 0.925781 23.890625 0.949219 23.90625 0.972656 23.921875 C 0.992188 23.933594 1.007812 23.949219 1.03125 23.960938 C 1.050781 23.972656 1.078125 23.972656 1.101562 23.980469 C 1.128906 23.988281 1.152344 23.996094 1.179688 23.996094 C 1.1875 23.996094 1.191406 24 1.199219 24 L 22.800781 24 C 22.863281 24 22.917969 23.984375 22.96875 23.964844 C 22.980469 23.957031 22.992188 23.945312 23.003906 23.9375 C 23.039062 23.914062 23.074219 23.890625 23.101562 23.859375 C 23.105469 23.855469 23.113281 23.851562 23.117188 23.84375 C 23.128906 23.832031 23.132812 23.816406 23.140625 23.800781 C 23.152344 23.777344 23.167969 23.753906 23.175781 23.730469 C 23.183594 23.703125 23.1875 23.675781 23.191406 23.648438 Z M 1.597656 10.761719 L 9.699219 16.398438 C 7.210938 18.113281 3.171875 21.4375 1.597656 22.746094 Z M 10.332031 16.933594 C 11.296875 16.277344 12.589844 16.28125 13.535156 16.929688 L 21.632812 23.199219 L 2.300781 23.199219 C 4.027344 21.769531 7.988281 18.527344 10.332031 16.933594 Z M 14.222656 16.453125 L 22.402344 10.761719 L 22.402344 22.785156 Z M 10.292969 1.488281 C 11.234375 0.566406 12.765625 0.566406 13.707031 1.488281 L 22.28125 9.871094 L 13.488281 15.988281 C 12.535156 15.546875 11.425781 15.535156 10.464844 15.957031 L 1.71875 9.871094 Z M 10.292969 1.488281"/>
    <path d="M 8.917969 11.082031 L 11.714844 13.878906 C 11.753906 13.917969 11.796875 13.945312 11.847656 13.96875 C 11.894531 13.988281 11.949219 13.996094 12 13.996094 C 12.050781 13.996094 12.105469 13.988281 12.152344 13.96875 C 12.203125 13.945312 12.246094 13.917969 12.285156 13.878906 L 15.082031 11.082031 C 15.238281 10.921875 15.238281 10.671875 15.082031 10.515625 C 14.925781 10.359375 14.675781 10.359375 14.519531 10.515625 L 12.398438 12.632812 L 12.398438 5.996094 C 12.398438 5.773438 12.222656 5.597656 12 5.597656 C 11.777344 5.597656 11.601562 5.773438 11.601562 5.996094 L 11.601562 12.632812 L 9.480469 10.515625 C 9.324219 10.359375 9.074219 10.359375 8.917969 10.515625 C 8.761719 10.671875 8.761719 10.925781 8.917969 11.082031 Z M 8.917969 11.082031"/>
</svg>

<svg xmlns="http://www.w3.org/2000/svg" width="32" height="32" viewBox="0 0 24 24">
    <path d="M23.191 23.648c.004-.015.012-.03.012-.046V9.82a.39.39 0 0 0-.121-.285L14.266.918a3.257 3.257 0 0 0-4.532 0L.918 9.535a.39.39 0 0 0-.121.285v13.782c0 .015.008.035.012.05a.606.606 0 0 0 .015.082.46.46 0 0 0 .043.075c.008.015.012.035.024.05.004.004.011.004.015.008.02.024.043.04.067.055.02.012.035.027.058.039.02.012.047.012.07.02.028.007.051.015.079.015.008 0 .011.004.02.004h21.6a.46.46 0 0 0 .169-.035c.011-.008.023-.02.035-.027.035-.024.07-.047.098-.079.003-.004.011-.007.015-.015.012-.012.016-.028.024-.043.011-.024.027-.047.035-.07.008-.028.012-.055.015-.083zM1.598 10.762l8.101 5.636c-2.488 1.715-6.527 5.04-8.101 6.348zm8.734 6.172a2.866 2.866 0 0 1 3.203-.004l8.098 6.27H2.3c1.726-1.43 5.687-4.673 8.031-6.266zm3.89-.48l8.18-5.692v12.023zM10.294 1.487a2.453 2.453 0 0 1 3.414 0l8.574 8.383-8.793 6.117a3.692 3.692 0 0 0-3.023-.031L1.719 9.871zm0 0"/>
    <path d="M8.918 11.082l2.797 2.797c.039.039.082.066.133.09.047.02.101.027.152.027.05 0 .105-.008.152-.027a.443.443 0 0 0 .133-.09l2.797-2.797a.4.4 0 0 0 0-.566.396.396 0 0 0-.562 0l-2.122 2.117V5.996A.395.395 0 0 0 12 5.598a.395.395 0 0 0-.398.398v6.637L9.48 10.516a.396.396 0 0 0-.562 0 .4.4 0 0 0 0 .566zm0 0"/>
</svg>
